packages/foundations/assets/icons/functional/images/date & time/alarm_clock_12.svg

<svg width="12" height="12" viewBox="0 0 12 12" fill="none" xmlns="http://www.w3.org/2000/svg">
<g clip-path="url(#clip0_231_156)">
<path fill-rule="evenodd" clip-rule="evenodd" d="M8.96192 1.20001C9.83811 1.20001 10.5809 2.01909 10.5809 2.81903C10.5809 3.37144 10.2762 3.90477 9.81904 4.19046C10.0667 4.74287 10.2 5.35239 10.2 5.981C10.2 6.97147 9.87621 7.86668 9.3238 8.59049L10.1048 9.84763C10.1619 9.9429 10.2 10.0571 10.2 10.1715C10.2 10.5143 9.97142 10.781 9.62856 10.781C9.41907 10.781 9.22859 10.6857 9.11431 10.4953L8.42859 9.42858C7.74288 9.90474 6.90478 10.1905 6.00951 10.1905C5.11431 10.1905 4.27621 9.90474 3.5905 9.4476L2.90478 10.5143C2.7905 10.6857 2.61904 10.8 2.42856 10.8C2.0857 10.8 1.81904 10.5714 1.81904 10.2286C1.81904 10.1143 1.83811 9.98093 1.91431 9.86671L2.69523 8.60951C2.16189 7.88576 1.81904 6.97147 1.81904 5.981C1.81904 5.37147 1.9524 4.76195 2.19999 4.20954C1.72383 3.90477 1.41907 3.39052 1.41907 2.83811C1.41907 1.9429 2.14288 1.20001 2.99999 1.20001C3.62859 1.20001 4.23811 1.56195 4.50478 2.09528C5.00002 1.88573 5.45716 1.80954 6.00951 1.80954C6.54285 1.80954 7.01907 1.86671 7.51431 2.03811C7.79999 1.52379 8.3524 1.20001 8.96192 1.20001ZM6.02771 2.99049C4.36058 2.99049 2.99999 4.35101 2.99999 6.01821C2.99999 7.6854 4.36058 9.04592 6.02771 9.04592C7.6949 9.04592 9.05543 7.6854 9.05543 6.01821C9.05543 4.35101 7.6949 2.99049 6.02771 2.99049ZM6.60002 3.92385V5.77144L7.66669 6.80001L6.82859 7.6762L5.41907 6.28576V3.92385H6.60002Z" fill="#1A1C1F"/>
</g>
<defs>
<clipPath id="clip0_231_156">
<rect width="12" height="12" fill="white"/>
</clipPath>
</defs>
</svg>

<svg xmlns="http://www.w3.org/2000/svg" width="12" height="12" fill="none"><g clip-path="url(#a)"><path fill="#1A1C1F" fill-rule="evenodd" d="M8.962 1.2c.876 0 1.619.82 1.619 1.619a1.65 1.65 0 0 1-.762 1.371c.248.553.381 1.162.381 1.791 0 .99-.324 1.886-.876 2.61l.78 1.257c.058.095.096.21.096.323 0 .343-.229.61-.571.61-.21 0-.4-.095-.515-.286L8.43 9.43a4.24 4.24 0 0 1-2.42.761 4.37 4.37 0 0 1-2.419-.742l-.685 1.066c-.114.172-.286.286-.476.286-.343 0-.61-.229-.61-.571 0-.115.02-.248.095-.362l.781-1.257A4.44 4.44 0 0 1 1.82 5.98c0-.61.133-1.22.381-1.771-.476-.305-.78-.82-.78-1.372C1.42 1.943 2.142 1.2 3 1.2c.629 0 1.238.362 1.505.895.495-.21.952-.285 1.505-.285.533 0 1.01.057 1.504.228A1.65 1.65 0 0 1 8.962 1.2M6.028 2.99A3.034 3.034 0 0 0 3 6.018a3.034 3.034 0 0 0 3.028 3.028 3.034 3.034 0 0 0 3.027-3.028A3.034 3.034 0 0 0 6.028 2.99m.572.934V5.77L7.667 6.8l-.838.876-1.41-1.39V3.924z" clip-rule="evenodd"/></g><defs><clipPath id="a"><path fill="#fff" d="M0 0h12v12H0z"/></clipPath></defs></svg>
